packages/icons/src/components/Logo/assets/dark/arch-linux.svg

<svg width="20" height="20" viewBox="0 0 20 20" fill="none" xmlns="http://www.w3.org/2000/svg">
<path d="M10 0.0625C9.12891 2.23828 8.57031 3.60156 7.57812 5.71484C8.19922 6.39844 8.94531 7.14453 10.125 7.94922C8.82031 7.45312 7.94922 6.89453 7.32812 6.33594C6.02344 9.00781 4.03906 12.7344 0.0625 20C3.16797 18.1367 5.65234 17.0195 7.94922 16.582C7.82422 16.1484 7.76172 15.7109 7.76172 15.2148V15.1562C7.82422 13.1055 8.87891 11.5547 10.1211 11.6797C11.3633 11.7422 12.3555 13.4805 12.2969 15.5312L12.1719 16.5859C14.4062 17.0195 16.832 18.1992 19.9375 19.9414L18.2617 16.8359C17.4531 16.2148 16.5859 15.4062 14.8438 14.4766C16.0234 14.7891 16.8945 15.1602 17.5781 15.5312C12.2344 5.65234 11.8008 4.34766 10 0V0.0625Z" fill="white"/>
</svg>

<svg xmlns="http://www.w3.org/2000/svg" width="20" height="20" fill="none" viewBox="0 0 20 20">
    <path fill="#fff" d="M10 .063c-.871 2.175-1.43 3.539-2.422 5.652a13.7 13.7 0 0 0 2.547 2.234C8.82 7.453 7.949 6.895 7.328 6.336 6.023 9.008 4.04 12.734.063 20c3.105-1.863 5.59-2.98 7.886-3.418a4.8 4.8 0 0 1-.187-1.367v-.059c.062-2.05 1.117-3.601 2.36-3.476 1.241.062 2.233 1.8 2.175 3.851l-.125 1.055c2.234.434 4.66 1.613 7.765 3.355l-1.675-3.105c-.809-.621-1.676-1.43-3.418-2.36 1.18.313 2.05.684 2.734 1.055C12.234 5.652 11.801 4.348 10 0z"/>
</svg>
